src/assets/icons/pinterest.svg

<svg width="14" height="14" viewBox="0 0 14 14" fill="none" xmlns="http://www.w3.org/2000/svg">
<g id="pinterest">
<g clip-path="url(#clip0_295_4727)">
<path id="Vector" d="M14 7C14 10.8669 10.8669 14 7 14C6.27742 14 5.58306 13.8899 4.92823 13.6867C5.21331 13.221 5.63952 12.4589 5.79758 11.852C5.88226 11.5246 6.23226 10.1867 6.23226 10.1867C6.46089 10.6214 7.12702 10.9911 7.83548 10.9911C9.94677 10.9911 11.4681 9.04919 11.4681 6.63589C11.4681 4.32419 9.57984 2.59395 7.15242 2.59395C4.13226 2.59395 2.52621 4.62056 2.52621 6.83065C2.52621 7.85806 3.07379 9.13669 3.94597 9.54315C4.07863 9.60524 4.14919 9.57702 4.18024 9.45C4.20282 9.35403 4.32137 8.87702 4.375 8.65685C4.39194 8.58629 4.38347 8.52419 4.32702 8.45645C4.04194 8.10363 3.81048 7.46008 3.81048 6.85887C3.81048 5.31492 4.97903 3.82177 6.97177 3.82177C8.69073 3.82177 9.89597 4.99314 9.89597 6.66976C9.89597 8.56371 8.93911 9.87621 7.69436 9.87621C7.00847 9.87621 6.49193 9.30887 6.65847 8.61169C6.85605 7.77903 7.2371 6.88145 7.2371 6.28024C7.2371 5.74395 6.94919 5.29516 6.35081 5.29516C5.64798 5.29516 5.08347 6.02056 5.08347 6.99435C5.08347 7.61532 5.29234 8.03306 5.29234 8.03306C5.29234 8.03306 4.60081 10.9629 4.47379 11.5105C4.33266 12.1145 4.38911 12.9669 4.44839 13.5202C1.84597 12.5012 0 9.96653 0 7C0 3.13306 3.13306 0 7 0C10.8669 0 14 3.13306 14 7Z" fill="black"/>
</g>
</g>
<defs>
<clipPath id="clip0_295_4727">
<rect width="14" height="14" fill="white"/>
</clipPath>
</defs>
</svg>

<svg xmlns="http://www.w3.org/2000/svg" fill="none" viewBox="0 0 14 14"><g clip-path="url(#a)"><path fill="#000" d="M14 7a7 7 0 0 1-9.072 6.687c.285-.466.712-1.228.87-1.835.084-.327.434-1.665.434-1.665.229.434.895.804 1.603.804 2.112 0 3.633-1.942 3.633-4.355 0-2.312-1.888-4.042-4.316-4.042-3.02 0-4.626 2.027-4.626 4.237 0 1.027.548 2.306 1.42 2.712.133.062.203.034.234-.093l.195-.793a.21.21 0 0 0-.048-.2c-.285-.353-.517-.997-.517-1.598 0-1.544 1.169-3.037 3.162-3.037 1.719 0 2.924 1.171 2.924 2.848 0 1.894-.957 3.206-2.202 3.206-.686 0-1.202-.567-1.036-1.264.198-.833.58-1.73.58-2.332 0-.536-.289-.985-.887-.985-.703 0-1.268.726-1.268 1.7 0 .62.21 1.038.21 1.038s-.692 2.93-.82 3.478c-.14.604-.084 1.456-.025 2.01A7 7 0 0 1 0 7c0-3.867 3.133-7 7-7s7 3.133 7 7"/></g><defs><clipPath id="a"><path fill="#fff" d="M0 0h14v14H0z"/></clipPath></defs></svg>
